X:15
T:O Come, O Come Emmanuel
T:Veni Emmanuel
R:March
C:Trad. 15C
O:France
Z:Paul Hardy's Xmas Tunebook 2012 (see www.paulhardy.net). Creative Commons cc by-nc-sa licenced.
M:4/4
L:1/8
Q:1/4=120
K:Em
"Em"E2 G2 B2 B2|B2 "Am"A2 c2 B2|"D"A2 "Em"G6|"Am"A2 "G"B2 "Em"G2 E2|G2 "Am"A2 F2 E2|"Em"D2 E6|
"Am"A2 A2 E2 E2|F2 "G"G4 F2|E2 "D"D6|"Em"G2 A2 B2 B2|B2 A2 "Am"c2 B2|"D"A2 "G"G6|
"D"d2 d6|"Bm"B2 B6|B2 "Am"A2 c2 B2|A2 "Em"G2 A2 "G"B2|G2 E2 G2 "Am"A2|F2 E2 "D"D2 "Em"E2-|E6 z2|]
W:
W:1.O come, O come, Emmanuel
W:And ransom captive Israel
W:That mourns in lonely exile here
W:Until the Son of God appear
W:Rejoice! Rejoice! Emmanuel
W:Shall come to thee, O Israel.
W:
W:
W:2.O come, Thou Rod of Jesse, free
W:Thine own from Satan's tyranny
W:From depths of Hell Thy people save
W:And give them victory o'er the grave
W:Rejoice! Rejoice! Emmanuel
W:Shall come to thee, O Israel.
W:
W:
W:3.O come, Thou Day-Spring, come and cheer
W:Our spirits by Thine advent here
W:Disperse the gloomy clouds of night
W:And death's dark shadows put to flight.
W:Rejoice! Rejoice! Emmanuel
W:Shall come to thee, O Israel.
W:
W:
W:4.O come, Thou Key of David, come,
W:And open wide our heavenly home;
W:Make safe the way that leads on high,
W:And close the path to misery.
W:Rejoice! Rejoice! Emmanuel
W:Shall come to thee, O Israel.
W:
W:5 come, O come, Thou Lord of might,
W:Who to Thy tribes, on Sinai's height,
W:In ancient times did'st give the Law,
W:In cloud, and majesty and awe.
W:Rejoice! Rejoice! Emmanuel
W:Shall come to thee, O Israel.

